X: 26274
T: Melancoliska Pollonessan
R: waltz
M: 3/4
K: Dminor
D>F A^c de|fe/f/ g/f/e/d/ ^cA|dd/^c/ dd/c/ df|e/f/e/d/ =c/d/c/B/ A/G/F/E/|
D>F Ad fa|ag/a/ ba g>e|fa/f/ eg/e/ d/^c/d/f/|a/g/e/^c/ cd d2:|
|:ff/d/ ff/d/ f/a/g/f/|ee/d/ ee/d/ e/g/f/e/|dd/^c/ dd/c/ df|e/f/e/d/ =c/d/c/B/ A/G/F/E/|
D>F Ad fa|ag/a/ ba g>e|fa/f/ eg/e/ d/^c/d/f/|a/g/e/^c/ cd d2:|

